X: 1574
T: Boys from Scart.
R:hornpipe
N:"Collected by F. O'Neill"
B:O'Neill's 1574
Z:Transcribed by Michael Hogan
M:C|
L:1/8
K:G
(dc) | BGBd BGBd | gfge dBGB | ecdB cABG | EAAB A2 (dc) |
BGBd BGBd | gfge dBGB | ecdB cABG | D2 G2 G2 :|
|: z2 | d(g {a}(3gfg) d(g {a}(3gfg) | dgba gfed | e(a {b}(3aga) e(a {b}(3aga) | eaaf gfef |
d(g {a}(3gfg) d(g {a}(3gfg) | dgba gfef | dfaf gfef | g2 gf g2 :||


